X: 26
T: Quant je suis seullecte
N: Derived from Ano3032-Quant_je_suis_seullecte--Dijon_Chansonnier.krn
C: Anonymous
%%abc-version 2.0
%%abcx-abcm2ps-target-version 5.9.1 (29 Sep 2008)
%%abc-creator hum2abc beta
%%abcx-conversion-date 2019/02/16 20:18:27
%%abc-edited-by Jesse Rodin
%%abc-edited-by Chris Gage 03-05-2015
%%abcx-initial-encoding-date 2015/03/13/
%%humdrum-veritas 252301793
%%humdrum-veritas-data 1889564032
%%linebreak <none>
%%barnumbers 0
L: 1/4
M: 2/1
Q: 1/2=120
%%staves [1 2 3 4]
V: 1 clef=treble
V: 2 clef=treble-8
V: 3 clef=treble-8
V: 4 clef=bass
K: F
[V:1] A8 | 
[V:2] A6B2 | 
[V:3] z8 | 
[V:4] z8 | 
[V:1] A6G2 | 
[V:2] c6BA | 
[V:3] z8 | 
[V:4] A,,6B,,2 | 
[V:1] E4F4- | 
[V:2] G4F4 | 
[V:3] z8 | 
[V:4] C,4D,4- | 
[V:1] F2E2F2ED | 
[V:2] z8 | 
[V:3] A6B2 | 
[V:4] D,2C,2D,3B,, | 
[V:1] C2E4F2 | 
[V:2] z8 | 
[V:3] c6BA | 
[V:4] A,,2C,4D,2 | 
[V:1] G4A4 | 
[V:2] z8 | 
[V:3] G4F4 | 
[V:4] E,4F,4 | 
[V:1] G4z2C2- | 
[V:2] B6A2 | 
[V:3] z8 | 
[V:4] G,6F,E, | 
[V:1] C2F4ED | 
[V:2] A3GF3E | 
[V:3] z8 | 
[V:4] F,2D,3C,A,,2 | 
[V:1] E2D3EF2- | 
[V:2] G4z4 | 
[V:3] B6A2 | 
[V:4] G,,2B,,3C,D,2- | 
[V:1] F2G2A4 | 
[V:2] z8 | 
[V:3] A3GF3E | 
[V:4] D,2C,B,,A,,4 | 
[V:1] B6A2 | 
[V:2] d6c2 | 
[V:3] G8 | 
[V:4] G,,8 | 
[V:1] B6c2 | 
[V:2] d6c2 | 
[V:3] z8 | 
[V:4] z4G,4- | 
[V:1] B6AG | 
[V:2] d4e4 | 
[V:3] d6c2 | 
[V:4] G,2F,2E,4 | 
[V:1] A8 | 
[V:2] f6e2 | 
[V:3] d6c2 | 
[V:4] D,2F,3G,A,2 | 
[V:1] z4G4 | 
[V:2] f2ed^c3=B | 
[V:3] d4e4 | 
[V:4] F,2G,2E,4 | 
[V:1] F4B4 | 
[V:2] d8 | 
[V:3] f6e2 | 
[V:4] D,2B,3A,G,2 | 
[V:1] A2G4^F2 | 
[V:2] z8 | 
[V:3] f2edc3B | 
[V:4] F,2G,2A,4 | 
[V:1] G4G4- | 
[V:2] B6A2 | 
[V:3] d8 | 
[V:4] G,4z4 | 
[V:1] G2F2D4 | 
[V:2] G6F2 | 
[V:3] z8 | 
[V:4] B,6A,2 | 
[V:1] z8 | 
[V:2] G4A4 | 
[V:3] B6A2 | 
[V:4] G,6F,2 | 
[V:1] D4F3D | 
[V:2] B6A2 | 
[V:3] G6F2 | 
[V:4] G,4D,4 | 
[V:1] _E2FED2C2 | 
[V:2] B2AG^F3E | 
[V:3] G4A4 | 
[V:4] B,,2C,2A,,4 | 
[V:1] B,2D3CC2 | 
[V:2] G4z4 | 
[V:3] B6A2 | 
[V:4] G,,2B,,3A,,F,,2 | 
[V:1] G,2B,2A,4 | 
[V:2] z8 | 
[V:3] B2AG^F3E | 
[V:4] G,,4D,4 | 
[V:1] G,8 | 
[V:2] z8 | 
[V:3] G8 | 
[V:4] z4E,4 | 
[V:1] z4D4 | 
[V:2] A6B2 | 
[V:3] z8 | 
[V:4] F,6E,D, | 
[V:1] E6F2 | 
[V:2] c6BA | 
[V:3] z8 | 
[V:4] C,2A,4G,F, | 
[V:1] G4A4- | 
[V:2] G4F4 | 
[V:3] z8 | 
[V:4] E,3D,F,4- | 
[V:1] A2F3ED2 | 
[V:2] z8 | 
[V:3] A6B2 | 
[V:4] F,2D,3C,D,2 | 
[V:1] C2E4D2- | 
[V:2] z8 | 
[V:3] c6BA | 
[V:4] A,,3B,,C,2D,2 | 
[V:1] D2^C2D4 | 
[V:2] z8 | 
[V:3] G4F4 | 
[V:4] E,4z2D,2- | 
[V:1] z4G,4 | 
[V:2] B6A2 | 
[V:3] z8 | 
[V:4] D,2G,4E,2 | 
[V:1] A,2B,2C4 | 
[V:2] A3GF3E | 
[V:3] z8 | 
[V:4] F,3G,A,4 | 
[V:1] B,3CD3E | 
[V:2] G4z4 | 
[V:3] B6A2 | 
[V:4] G,6D,2- | 
[V:1] F2F3EDC | 
[V:2] z8 | 
[V:3] A3GF3E | 
[V:4] D,2C,B,,A,,3G,, | 
[V:1] B,2B2A2c2- | 
[V:2] g4a4 | 
[V:3] G2d4cd | 
[V:4] G,,4F,,4 | 
[V:1] cBAG^F3E | 
[V:2] g2fed4- | 
[V:3] edcBA3G | 
[V:4] G,,4D,4 | 
[V:1] G8- | 
[V:2] d2_e4d2 | 
[V:3] G8- | 
[V:4] G,,8- | 
[V:1] G8 |]  
[V:2] d8 |]  
[V:3] G8 |]  
[V:4] G,,8 |]  



